src/assets/skill-data.svg

<svg xmlns="http://www.w3.org/2000/svg" width="40" height="40" viewBox="0 0 40 40">
  <g fill="#030226">
    <path d="M16.6471518,2.66993763 C8.93122661,2.66993763 2.6762578,8.92490644 2.6762578,16.6408316 C2.6762578,24.3567568 8.93122661,30.6117256 16.6471518,30.6117256 C24.3630769,30.6117256 30.6180457,24.3567568 30.6180457,16.6408316 C30.6096466,8.92839917 24.3595842,2.6783368 16.6471518,2.66993763 Z M16.6471518,4.00049896 C20.7565904,4.0037422 24.6074844,6.00656965 26.9696466,9.36931393 L25.3064449,11.0325156 C24.9017048,10.7876091 24.4383368,10.6565489 23.9652391,10.6533056 C22.4955509,10.6533056 21.3041164,11.8447401 21.3041164,13.3144283 C21.3064449,13.7880249 21.4367568,14.2521414 21.6813306,14.6576299 L17.3250728,19.0138877 C16.5002079,18.5109356 15.4635343,18.5109356 14.6386694,19.0138877 L11.612973,15.9881913 C11.8575468,15.5827027 11.9878586,15.1185863 11.9901871,14.6449896 C11.9920166,13.1782121 10.8044906,11.9876923 9.3377131,11.9858628 C8.12465696,11.9843659 7.0647817,12.8049064 6.76241164,13.9797089 L4.29422037,13.9797089 C5.55384615,8.1629106 10.6955509,4.00923077 16.6471518,4.00049896 Z M25.2958004,13.3144283 C25.2958004,14.0493139 24.7001247,14.6449896 23.9652391,14.6449896 C23.2303534,14.6449896 22.6346778,14.0493139 22.6346778,13.3144283 C22.6346778,12.5795426 23.2303534,11.9838669 23.9652391,11.9838669 C24.7001247,11.9838669 25.2958004,12.5795426 25.2958004,13.3144283 Z M17.3124324,21.2977963 C17.3124324,22.0326819 16.7167568,22.6283576 15.9818711,22.6283576 C15.2469854,22.6283576 14.6513098,22.0326819 14.6513098,21.2977963 C14.6513098,20.5629106 15.2469854,19.9672349 15.9818711,19.9672349 C16.7167568,19.9672349 17.3124324,20.5629106 17.3124324,21.2977963 Z M10.6596258,14.6449896 C10.6596258,15.3798753 10.0639501,15.9755509 9.32906445,15.9755509 C8.59417879,15.9755509 7.99850312,15.3798753 7.99850312,14.6449896 C7.99850312,13.910104 8.59417879,13.3144283 9.32906445,13.3144283 C10.0639501,13.3144283 10.6596258,13.910104 10.6596258,14.6449896 Z M22.7888565,27.6933056 C20.910104,28.7364657 18.7961746,29.2829938 16.6471518,29.2810861 C9.67085239,29.2858212 4.01155925,23.6343451 4.00681569,16.6580457 C4.00648649,16.207817 4.03027027,15.7578378 4.07800416,15.3101871 L6.76241164,15.3101871 C7.06486486,16.4814969 8.11933472,17.3014553 9.32906445,17.3060291 C9.80266112,17.3037006 10.2667775,17.1733888 10.6722661,16.928815 L13.6979626,19.9545114 C13.4533888,20.36 13.3230769,20.8241164 13.3207484,21.2977131 C13.3207484,22.7674012 14.512183,23.9588358 15.9818711,23.9588358 C17.4515593,23.9588358 18.6429938,22.7674012 18.6429938,21.2977131 C18.6406653,20.8241164 18.5103534,20.36 18.2657796,19.9545114 L22.6220374,15.5982536 C23.027526,15.8428274 23.4916424,15.9731393 23.9652391,15.9754678 C25.4349272,15.9754678 26.6263617,14.7840333 26.6263617,13.3143451 C26.6240333,12.8407484 26.4937214,12.376632 26.2491476,11.9711435 L27.6994595,10.5214969 C31.0853222,16.6194595 28.886736,24.307526 22.7888565,27.6933056 Z"/>
    <path d="M33.2791684,6.66162162 C34.4888981,6.65704782 35.543368,5.83717256 35.8458212,4.66577963 L39.9319751,4.66577963 L39.9319751,3.3352183 L35.8458212,3.3352183 C35.543368,2.16382536 34.4888981,1.3439501 33.2791684,1.3393763 C31.8094802,1.3393763 30.6180457,2.53081081 30.6180457,4.00049896 C30.6203742,4.47409563 30.7506861,4.93821206 30.9952599,5.34370062 L29.8263617,6.51259875 C24.2334304,-0.773970894 13.7925156,-2.14694387 6.50594595,3.44598753 C-0.780623701,9.03891892 -2.15359667,19.4799168 3.43933472,26.7664865 C8.71866944,33.6444075 18.3960915,35.3128482 25.6736798,30.5997505 L27.6814969,32.6075676 L28.6222037,33.5482744 L33.9777131,38.9037838 C35.3397921,40.2658628 37.5480249,40.2658628 38.910104,38.9037838 C40.272183,37.5417048 40.272183,35.3334719 38.910104,33.9713929 L33.5545946,28.6158836 L32.6138877,27.6751767 L30.6060707,25.6673597 C34.1702287,20.1774636 34.1702287,13.1042827 30.6060707,7.61430353 L31.936632,6.2837422 C32.3418711,6.52839917 32.8058212,6.6589605 33.2791684,6.66162162 Z M33.2791684,2.66993763 C34.0140541,2.66993763 34.6097297,3.26561331 34.6097297,4.00049896 C34.6097297,4.73538462 34.0140541,5.33106029 33.2791684,5.33106029 C32.5442827,5.33106029 31.9486071,4.73538462 31.9486071,4.00049896 C31.9486071,3.26561331 32.5443659,2.66993763 33.2791684,2.66993763 Z M37.9693971,34.9120998 C38.8214553,35.7450312 38.8370062,37.1110187 38.0040748,37.9630769 C37.1711435,38.8151351 35.8051559,38.8306861 34.9530977,37.9977547 C34.9413721,37.9863617 34.929896,37.9748025 34.91842,37.9630769 L29.5629106,32.6075676 L32.6138877,29.5565904 L37.9693971,34.9120998 Z M31.6731809,28.6158836 L28.6222037,31.6668607 L26.7807069,29.8253638 C26.8745114,29.7535135 26.9623285,29.6743451 27.0548025,29.600499 C27.1472765,29.5266528 27.2543867,29.4381705 27.3535135,29.3550104 C27.49921,29.2325988 27.6429106,29.1088565 27.7839501,28.9817879 C27.8564657,28.9152599 27.9256549,28.8487318 27.9968399,28.7822037 C28.269605,28.526736 28.5337214,28.2626195 28.7891892,27.9898545 C28.8557173,27.9186694 28.9222453,27.8494802 28.9887734,27.7769647 C29.115842,27.6359252 29.2395842,27.4922245 29.3619958,27.3465281 C29.4454054,27.2480665 29.5272349,27.1485239 29.6074844,27.047817 C29.6806653,26.9560083 29.7598337,26.8681913 29.831684,26.7743867 L31.6731809,28.6158836 Z M29.0932225,25.5256549 C28.883659,25.8183784 28.6674428,26.1051143 28.4392516,26.3812058 C28.3727235,26.4617048 28.3015385,26.5395426 28.2330146,26.618711 C28.0294387,26.8555509 27.81921,27.0853222 27.6023285,27.3079418 C27.5078586,27.4054886 27.4118087,27.5015385 27.314262,27.5960083 C27.092474,27.8128898 26.8627859,28.0231185 26.6250312,28.2266944 C26.5458628,28.2932225 26.4680249,28.365738 26.387526,28.4329314 C26.1114345,28.6611227 25.8246985,28.8773389 25.5319751,29.0869023 C18.6449896,34.0070686 9.07334719,32.4126403 4.15318087,25.5256549 C-0.766985447,18.6386694 0.827442827,9.06702703 7.71442827,4.14686071 C14.6014137,-0.773305613 24.1730561,0.821039501 29.0932225,7.70810811 C32.9003742,13.0371726 32.9003742,20.1965904 29.0932225,25.5256549 Z"/>
  </g>
</svg>

<svg xmlns="http://www.w3.org/2000/svg" width="40" height="40"><g fill="#030226"><path d="M16.647 2.67c-7.716 0-13.97 6.255-13.97 13.97 0 7.717 6.254 13.972 13.97 13.972 7.716 0 13.971-6.255 13.971-13.971C30.61 8.928 24.36 2.678 16.648 2.67zm0 1.33c4.11.004 7.96 2.007 10.323 5.37l-1.664 1.663a2.625 2.625 0 00-1.34-.38 2.661 2.661 0 00-2.662 2.661c.002.474.133.938.377 1.344l-4.356 4.356a2.58 2.58 0 00-2.686 0l-3.026-3.026c.245-.405.375-.87.377-1.343a2.656 2.656 0 00-5.228-.665H4.294A12.658 12.658 0 0116.647 4zm8.649 9.314a1.33 1.33 0 11-2.661 0 1.33 1.33 0 012.66 0zm-7.984 7.984a1.33 1.33 0 11-2.66 0 1.33 1.33 0 012.66 0zm-6.652-6.653a1.33 1.33 0 11-2.661 0 1.33 1.33 0 012.66 0zm12.129 13.048a12.629 12.629 0 01-6.142 1.588c-6.976.005-12.635-5.647-12.64-12.623 0-.45.023-.9.071-1.348h2.684a2.661 2.661 0 002.567 1.996 2.626 2.626 0 001.343-.377l3.026 3.026c-.245.405-.375.87-.377 1.343a2.661 2.661 0 005.322 0 2.626 2.626 0 00-.377-1.343l4.356-4.357c.406.245.87.375 1.343.377a2.661 2.661 0 002.661-2.66 2.626 2.626 0 00-.377-1.344l1.45-1.45c3.386 6.098 1.188 13.787-4.91 17.172z"/><path d="M33.28 6.662a2.661 2.661 0 002.566-1.996h4.086v-1.33h-4.086a2.661 2.661 0 00-2.567-1.997A2.661 2.661 0 0030.618 4c.002.474.133.938.377 1.344l-1.169 1.169c-5.593-7.287-16.033-8.66-23.32-3.067-7.287 5.593-8.66 16.034-3.067 23.32 5.28 6.878 14.957 8.547 22.235 3.834l2.007 2.008.941.94 5.356 5.356a3.488 3.488 0 104.932-4.933l-5.355-5.355-.941-.94-2.008-2.009a16.577 16.577 0 000-18.053l1.33-1.33c.406.244.87.375 1.343.378zm0-3.992a1.33 1.33 0 110 2.661 1.33 1.33 0 010-2.661zm4.69 32.242a2.158 2.158 0 11-3.052 3.051l-5.355-5.355 3.05-3.051 5.356 5.355zm-6.297-6.296l-3.05 3.05-1.842-1.84c.094-.072.181-.152.274-.226a16.761 16.761 0 00.729-.618l.213-.2c.273-.255.537-.52.792-.792.067-.071.133-.14.2-.213a16.47 16.47 0 00.618-.73c.074-.091.153-.179.225-.273l1.841 1.842zm-2.58-3.09c-.21.292-.426.58-.654.855-.066.08-.137.159-.206.238a14.988 14.988 0 01-1.608 1.608c-.08.066-.157.139-.237.206-.277.228-.563.444-.856.654-6.887 4.92-16.459 3.326-21.379-3.561C-.767 18.639.827 9.067 7.714 4.146c6.887-4.92 16.46-3.325 21.38 3.562a15.325 15.325 0 010 17.818z"/></g></svg>
